images_sukapura_svg/cmd/32/colorsettings.svg

<svg height="32" viewBox="0 0 32 32" width="32" xmlns="http://www.w3.org/2000/svg"><g transform="matrix(1.6242395 0 0 1.6242395 3 -9.992467)"><path d="m15.794922 14.248047-7.7890626 1.755859 4.3496096 6.705078a8 8 0 0 0 3.644531-6.708984 8 8 0 0 0 -.205078-1.751953z" fill="#ff9500"/><path d="m8.0019531 8 .00195 8 7.7910159-1.753906a8 8 0 0 0 -7.7929659-6.246094z" fill="#fc0"/><path d="m8 8a8 8 0 0 0 -7.79882812 6.246094l7.79882812 1.753906.0019531-8a8 8 0 0 0 -.0019531 0z" fill="#ff3b30"/><path d="m8.0058594 16.003906-4.3632813 6.697266a8 8 0 0 0 4.3574219 1.298828 8 8 0 0 0 4.355469-1.291016z" fill="#28cd41"/><path d="m.20117188 14.246094a8 8 0 0 0 -.20117188 1.753906 8 8 0 0 0 3.6425781 6.701172l4.3632813-6.697266z" fill="#007aff"/></g></svg>

<?xml version="1.0" encoding="UTF-8" standalone="no"?>
<svg
   xmlns:dc="http://purl.org/dc/elements/1.1/"
   xmlns:cc="http://creativecommons.org/ns#"
   xmlns:rdf="http://www.w3.org/1999/02/22-rdf-syntax-ns#"
   xmlns:svg="http://www.w3.org/2000/svg"
   xmlns="http://www.w3.org/2000/svg"
   xmlns:sodipodi="http://sodipodi.sourceforge.net/DTD/sodipodi-0.dtd"
   xmlns:inkscape="http://www.inkscape.org/namespaces/inkscape"
   viewBox="0 0 32 32"
   version="1.1"
   id="svg950"
   sodipodi:docname="colorsettings.svg"
   width="32"
   height="32"
   inkscape:export-filename="/home/rizmut/Dokumen/Rizmut/Github/libreoffice-style-sukapura/images_sukapura/cmd/lc_colorsettings.png"
   inkscape:export-xdpi="96"
   inkscape:export-ydpi="96"
   inkscape:version="0.92.3 (unknown)">
  <metadata
     id="metadata956">
    <rdf:RDF>
      <cc:Work
         rdf:about="">
        <dc:format>image/svg+xml</dc:format>
        <dc:type
           rdf:resource="http://purl.org/dc/dcmitype/StillImage" />
        <dc:title></dc:title>
      </cc:Work>
    </rdf:RDF>
  </metadata>
  <defs
     id="defs954" />
  <sodipodi:namedview
     pagecolor="#ffffff"
     bordercolor="#666666"
     borderopacity="1"
     objecttolerance="10"
     gridtolerance="10"
     guidetolerance="10"
     inkscape:pageopacity="0"
     inkscape:pageshadow="2"
     inkscape:window-width="1366"
     inkscape:window-height="706"
     id="namedview952"
     showgrid="true"
     inkscape:snap-global="true"
     inkscape:zoom="16"
     inkscape:cx="4.3590528"
     inkscape:cy="19.634486"
     inkscape:window-x="0"
     inkscape:window-y="0"
     inkscape:window-maximized="1"
     inkscape:current-layer="svg950">
    <inkscape:grid
       type="xygrid"
       id="grid958"
       spacingx="0.5"
       spacingy="0.5"
       empspacing="2" />
  </sodipodi:namedview>
  <g
     id="g965"
     transform="matrix(1.6242395,0,0,1.6242395,3,-9.9924669)">
    <path
       style="fill:#ff9500"
       inkscape:connector-curvature="0"
       id="path940"
       d="m 15.794922,14.248047 -7.7890626,1.755859 4.3496096,6.705078 A 8,8 0 0 0 16,16 8,8 0 0 0 15.794922,14.248047 Z" />
    <path
       style="fill:#ffcc00"
       inkscape:connector-curvature="0"
       id="path942"
       d="m 8.0019531,8 0.00195,8 7.7910159,-1.753906 A 8,8 0 0 0 8.0019531,8 Z" />
    <path
       style="fill:#ff3b30"
       inkscape:connector-curvature="0"
       id="path944"
       d="M 8,8 A 8,8 0 0 0 0.20117188,14.246094 L 8,16 8.0019531,8 A 8,8 0 0 0 8,8 Z" />
    <path
       style="fill:#28cd41"
       inkscape:connector-curvature="0"
       id="path946"
       d="M 8.0058594,16.003906 3.6425781,22.701172 A 8,8 0 0 0 8,24 8,8 0 0 0 12.355469,22.708984 Z" />
    <path
       style="fill:#007aff"
       inkscape:connector-curvature="0"
       id="path948"
       d="M 0.20117188,14.246094 A 8,8 0 0 0 0,16 8,8 0 0 0 3.6425781,22.701172 l 4.3632813,-6.697266 z" />
  </g>
</svg>
